X:613
T: Trulala
N: M1187
O: Luxemburg
S: mndlich]
R: Kehrreim]
M: 2/4
L: 1/8
K: G
d | edcA | GBB2 | Acc2 | Bdd2 |
d | edcA | GBB2 | d2d2 | G3

@@@ Tune index: 8667
